X:1
T:C Major Oliver Holden, 1800
T:Anne Steele, 1760 The Exalted Savior 88. 88. (L. M.).
T:Emulation No copyright. Transcribed from Plain Psalmody, 1800.
%%score [ 1 2 3 4 ]
L:1/8
M:4/4
K:C
V:1 treble nm="Treble" snm="Tr."
V:2 treble nm="Counter" snm="C."
V:3 treble-8 nm="Tenor" snm="T."
V:4 bass nm="Bass" snm="B."
V:1
 c4 c2 c2 | c2 c2 cB cd | e6 G2 | B2 B2 d2 e2 | d4 c4 | B8 | c4 c2 c2 | G2 B2 d2 B2 | G3 B cB cd | %9
 c2 Ac e2 d2 | c6 c2 | c2 c2 A2 A2 | c4 B4 | c8 |] %14
V:2
 E4 E2 E2 | E2 E2 F2 F2 | G6 E2 | G2 G2 G2 G2 | ^F4 F4 | G8 | F4 F2 F2 | D2 D2 G2 G2 | G3 G G2 G2 | %9
w: 1.~Now let us|raise our cheer- ful|strains, And|join the bliss- ful|choir a-|bove;|There our ex-|al- ted Sav- ior|reigns, And there they|
 F2 F2 G2 F2 | E6 E2 | F2 F2 F2 F2 | G4 F4 | E8 |] %14
w: sing His won- drous|love, And|there they sing His|won- drous|love.|
V:3
 C4 E2 E2 | G2 G2 AG AB | c6 c2 | d2 d2 B2 G2 | BGcA (G2 ^F2) | G8 | A4 A2 A2 | B2 G2 BA Bc | %8
 d3 d ed cB | AB cA G2 F2 | E6 G2 | AG AB cB cd | e4 d4 | c8 |] %14
V:4
 C,4 C,2 C,2 | C,2 E,2 F,E, F,G, | (E,3 D, C,2) C,2 | G,2 G,2 G,2 G,2 | D,4 D,4 | [G,,G,]8 | %6
 F,4 F,2 F,2 | G,2 G,2 G,2 G,2 | G,3 G, C2 C,2 | F,2 F,2 E,2 G,2 | C,6 E,2 | F,2 F,2 D,2 F,2 | %12
 E,4 G,4 | C,8 |] %14

